outputs/icons/maps/layers_sharp.svg

<svg xmlns="http://www.w3.org/2000/svg" width="1200" height="1200" fill="none"><g clip-path="url(#a)"><path fill="#000" d="M599.5 927 231 640.5l-81 63 450 350 450-350-81.5-63.5zm.5-127 368-286.5 82-63.5-450-350-450 350 81.5 63.5z"/></g><defs><clipPath id="a"><path fill="#fff" d="M0 0h1200v1200H0z"/></clipPath></defs></svg>

<svg width="1200" height="1200" viewBox="0 0 1200 1200" fill="none" xmlns="http://www.w3.org/2000/svg"><g clip-path="url(#clip0_124_947)"><path d="M599.5 927L231 640.5L150 703.5L600 1053.5L1050 703.5L968.5 640L599.5 927ZM600 800L968 513.5L1050 450L600 100L150 450L231.5 513.5L600 800Z" fill="#1D1E23"/></g><defs><clipPath id="clip0_124_947"><path width="24" fill="white" d="M0 0H1200V1200H0V0z"/></clipPath></defs></svg>
